img/icons/support.svg

<svg width="21" height="24" viewBox="0 0 21 24" fill="none" xmlns="http://www.w3.org/2000/svg">
<path d="M10.8089 20.317H10.5183C7.76754 20.317 5.43322 19.3581 3.5154 17.4402C1.59758 15.5224 0.638672 13.1881 0.638672 10.4373C0.638672 7.68648 1.59758 5.35217 3.5154 3.43435C5.43322 1.51653 7.76754 0.557617 10.5183 0.557617C11.8938 0.557617 13.1773 0.814101 14.3691 1.32707C15.5609 1.84004 16.6069 2.54711 17.5073 3.44829C18.4078 4.34947 19.1144 5.39556 19.6274 6.58654C20.1404 7.77753 20.3972 9.06111 20.398 10.4373C20.398 13.0331 19.6665 15.4449 18.2036 17.6727C16.7406 19.9005 14.8956 21.6439 12.6686 22.9031C12.4749 23 12.2812 23.0534 12.0875 23.0635C11.8938 23.0736 11.7194 23.0298 11.5644 22.9322C11.4095 22.8345 11.2739 22.7086 11.1576 22.5544C11.0414 22.4002 10.9736 22.2162 10.9542 22.0023L10.8089 20.317ZM10.4893 16.801C10.8186 16.801 11.0995 16.6847 11.332 16.4523C11.5644 16.2198 11.6807 15.9389 11.6807 15.6096C11.6807 15.2803 11.5644 14.9994 11.332 14.7669C11.0995 14.5345 10.8186 14.4182 10.4893 14.4182C10.16 14.4182 9.87907 14.5345 9.64661 14.7669C9.41415 14.9994 9.29792 15.2803 9.29792 15.6096C9.29792 15.9389 9.41415 16.2198 9.64661 16.4523C9.87907 16.6847 10.16 16.801 10.4893 16.801ZM7.96125 7.96737C8.17435 8.06423 8.38744 8.06927 8.60053 7.98248C8.81362 7.8957 8.98797 7.75506 9.12357 7.56056C9.29792 7.3281 9.50132 7.14872 9.73378 7.02241C9.96625 6.89611 10.2278 6.83334 10.5183 6.83412C10.9833 6.83412 11.361 6.96468 11.6516 7.22582C11.9422 7.48695 12.0875 7.82131 12.0875 8.22889C12.0875 8.48073 12.015 8.73256 11.8701 8.9844C11.7252 9.23623 11.4683 9.54618 11.0995 9.91425C10.6152 10.3404 10.2568 10.7426 10.0244 11.1207C9.7919 11.4989 9.67567 11.8813 9.67567 12.2679C9.67567 12.5004 9.75819 12.6992 9.92324 12.8642C10.0883 13.0293 10.2867 13.1114 10.5183 13.1106C10.75 13.1098 10.9438 13.0227 11.0995 12.8491C11.2553 12.6755 11.3715 12.4721 11.4482 12.2389C11.5451 11.9096 11.7194 11.6093 11.9712 11.3381C12.2231 11.0669 12.4555 10.8247 12.6686 10.6116C13.0754 10.2048 13.3807 9.79802 13.5845 9.39121C13.7883 8.9844 13.8898 8.57759 13.8891 8.17078C13.8891 7.27967 13.5838 6.56291 12.9732 6.0205C12.3626 5.47808 11.5443 5.20688 10.5183 5.20688C9.89845 5.20688 9.32697 5.3572 8.80393 5.65785C8.28089 5.95851 7.85471 6.36997 7.52539 6.89223C7.40915 7.10532 7.39443 7.31376 7.48122 7.51756C7.568 7.72135 7.72802 7.87129 7.96125 7.96737Z" fill="#89929C"/>
</svg>

<svg width="21" height="24" fill="none" xmlns="http://www.w3.org/2000/svg"><path d="M10.809 20.317h-.29c-2.751 0-5.086-.959-7.004-2.877C1.598 15.522.64 13.188.64 10.437c0-2.75.959-5.085 2.876-7.003C5.433 1.517 7.768.558 10.518.558c1.376 0 2.66.256 3.851.77a9.956 9.956 0 015.258 5.259c.513 1.19.77 2.474.771 3.85 0 2.596-.732 5.008-2.194 7.236-1.463 2.228-3.308 3.97-5.535 5.23-.194.097-.388.15-.582.16a.873.873 0 01-.523-.13 1.53 1.53 0 01-.406-.379 1.055 1.055 0 01-.204-.552l-.145-1.685zm-.32-3.516c.33 0 .61-.116.843-.349.232-.232.349-.513.349-.842 0-.33-.117-.61-.349-.843a1.148 1.148 0 00-.843-.349c-.329 0-.61.117-.842.349a1.148 1.148 0 00-.35.843c0 .329.117.61.35.842.232.233.513.349.842.349zM7.961 7.967a.777.777 0 00.64.015 1.16 1.16 0 00.523-.421 1.89 1.89 0 01.61-.539c.232-.126.494-.189.784-.188.465 0 .843.13 1.134.392.29.261.436.595.436 1.003 0 .252-.073.504-.218.755-.145.252-.402.562-.77.93-.485.426-.843.829-1.076 1.207-.232.378-.348.76-.348 1.147 0 .232.082.431.247.596a.807.807 0 00.595.247.753.753 0 00.582-.262c.155-.174.271-.377.348-.61.097-.33.271-.63.523-.9.252-.272.485-.514.698-.727.406-.407.712-.814.915-1.22.204-.408.306-.814.305-1.221 0-.891-.305-1.608-.916-2.15-.61-.543-1.429-.814-2.455-.814-.62 0-1.191.15-1.714.45a3.65 3.65 0 00-1.279 1.235.686.686 0 00-.044.626.84.84 0 00.48.45z" fill="#89929C"/></svg>
